X:1
T:Singing I Go
T:William James Kirkpatrick
T:Singing I Go
T:Public Domain
C:William James Kirkpatrick
Z:Public Domain
%%score ( 1 2 ) ( 3 4 )
L:1/8
M:6/8
K:G
V:1 treble 
V:2 treble 
V:3 bass 
V:4 bass 
V:1
 D | ([B,G]2 [B,G] [B,G][CA][DB] | [B,D]2 [CE] [B,D]2 [B,D] | [DG]2 [DG] [DB][CA][B,G] | %4
 [DA]3- [DA]2) D | ([B,G]2 [B,G] [B,G][CA][DB] | [B,D]2 [CE] [B,D]2 [B,D] | [CE]2 [Ec] [DB]2 [CA] | %8
 [B,G]3- [B,G]2) z ||"^Refrain" ([GB][Gd][Gd] [Gd]2 [Gd] | [GB]2 [Gd] [DG]3) | [GB][GA]G [Fd]3 | %12
 (G[FA][GB] [FA]3) | [GB][Gd][Gd] [Gd]2 [Gd] | [GB]2 [Gd] [DG]2 D | ([CE][CE][Gc] [GB][GB][FA] | %16
 [DG]8) |] %17
V:2
 D | x6 | x6 | x6 | x5 D | x6 | x6 | x6 | x6 || x6 | x6 | x2 G x3 | G x5 | x6 | x5 D | x6 | x8 |] %17
V:3
 D, | ([G,,D,]2 [G,,D,] [G,,D,]2 [G,,D,] | [G,,G,]2 [G,,G,] [G,,G,]2 [G,,G,] | %3
w: ~|~ * * *||
 [B,,G,]2 [B,,G,] [G,,G,]2 [G,,G,] | [D,F,]3- [D,F,]2) D, | ([G,,D,]2 [G,,D,] [G,,D,]2 [G,,G,] | %6
w: |* * ~|~ * * *|
 [G,,G,]2 [G,,G,] [G,,G,]2 [G,,G,] | [C,G,]2 [C,G,] [D,G,]2 [D,F,] | [G,,G,]3- [G,,G,]2) z || %9
w: |||
 ([G,D][G,B,][G,B,] [G,B,]2 [G,B,] | [G,D]2 [G,B,] [G,B,]3) | ([G,D][G,C][G,B,] [D,A,]3 | %12
w: ~ * * * *||~ * * *|
 [B,D][A,D][G,D] [D,D]3) | ([G,D][G,B,][G,B,] [G,B,]2 [G,B,] | [G,D]2 [G,B,] [G,B,]2 [B,,G,] | %15
w: |~ * * * *||
 [C,G,][C,G,][C,E] [D,D][D,D][D,C] | [G,,B,]8) |] %17
w: ||
V:4
 D, | x6 | x6 | x6 | x5 D, | x6 | x6 | x6 | x6 || x6 | x6 | x6 | x6 | x6 | x6 | x6 | x8 |] %17

